!!!SOCIAL_FUNCTION:	miscellaneous songs
!!!PDT:	1922
!!!OTL: No_106_Song_When_Begging_for_Tobacco.krn
!!!REG: Southwest
!!!LANG: Non-Tone
!!!LING_GROUP: Uto-Aztecan
**kern	**kern
*staff2	*staff1
=1-	=1-
=	=
*clefF4	*clefF4
*k[b-e-a-]	*k[b-e-a-]
*M2/4	*M2/4
8GG/L	4e-;\
8GG/J	.
8GG/L	8f\L
8GG/J	8e-\J
=2	=2
8GG/L	4e-\
8GG/J	.
8GG/L	16B-\LL
.	16G\J
8GG/J	8G\J
=3||	=3||
*M3/4	*M3/4
2.r	16F\LK
.	8.E-;\J
.	12F\L
.	12E-\
.	12E-\J
.	4E-;\
=4||	=4||
*M2/4	*M2/4
2r	4B-\
.	4B-\
=5||	=5||
*M3/4	*M3/4
2.r	16G\LK
.	8.F\J
.	4E-\
.	4E-\
=6||	=6||
*M2/4	*M2/4
2r	4E-\
.	4E-\
=7||	=7||
*M3/4	*M3/4
2.r	16F\LL
.	16F\J
.	8E-\J
.	16F\LL
.	16F\J
.	8E-\J
.	4E-\
=8||	=8||
*M2/4	*M2/4
2r	4BB-/
.	4BB-/
==:|!	==:|!
*-	*-
